modules/framework7-icons/icons/info.svg

<?xml version="1.0" encoding="UTF-8"?>
<svg width="44px" height="44px" viewBox="0 0 44 44" version="1.1" xmlns="http://www.w3.org/2000/svg" xmlns:xlink="http://www.w3.org/1999/xlink">
    <!-- Generator: Sketch 40.1 (33804) - http://www.bohemiancoding.com/sketch -->
    <title>info</title>
    <desc>Created with Sketch.</desc>
    <defs></defs>
    <g id="Page-1" stroke="none" stroke-width="1" fill="none" fill-rule="evenodd">
        <g id="info" fill="#000000">
            <path d="M42,22 C42,10.954305 33.045695,2 22,2 C10.954305,2 2,10.954305 2,22 C2,33.045695 10.954305,42 22,42 C33.045695,42 42,33.045695 42,22 Z M0,22 C0,9.8497355 9.8497355,0 22,0 C34.1502645,0 44,9.8497355 44,22 C44,34.1502645 34.1502645,44 22,44 C9.8497355,44 0,34.1502645 0,22 Z" id="Oval-34"></path>
            <circle id="Oval-35" cx="22" cy="12" r="3"></circle>
            <path d="M20,17 L24,17 L24,33 L20,33 L20,17 L20,17 Z M18,33 L26,33 L26,34 L18,34 L18,33 L18,33 Z M18,17 L20,17 L20,18 L18,18 L18,17 L18,17 Z" id="Rectangle-26"></path>
        </g>
    </g>
</svg>

<svg width="44" height="44" xmlns="http://www.w3.org/2000/svg"><g fill-rule="evenodd"><path d="M42 22c0-11.046-8.954-20-20-20S2 10.954 2 22s8.954 20 20 20 20-8.954 20-20zM0 22C0 9.85 9.85 0 22 0s22 9.85 22 22-9.85 22-22 22S0 34.15 0 22z"/><circle cx="22" cy="12" r="3"/><path d="M20 17h4v16h-4V17zm-2 16h8v1h-8v-1zm0-16h2v1h-2v-1z"/></g></svg>
